X:3456
T:Corsair, The
M:4/4
L:1/8
C:Matt Seattle
S:Nomos, I Won't Be Afraid Anymore
R:Hornpipe, I presume
K:D min
A>d d>A c>A G>E|F>E D>F E>A, A,>G,|
A,>D F>D E>G c>B|A>d f>a g>e c>A|
(3ddd d>A c>A G>E|F>E D>F E>A, A,>G,|
A,>D F>D E>G c>B|1 A>G E>F D3 B:|2 A>G E>F D>E F>G|
|A>F (3FFF G>E (3EEE|F>d (3ddd e>c c>B|
A>d f>a g>b e>g|f>a d>f e>c c>B|
A>F (3FFF G>E (3EEE|F>d (3ddd e>c c>B|
A>d f>a g>e c>B|1A>G E>F D>E F>G:|2A>G E>F D3 B||


